app/component-library/components/Icons/Icon/assets/user-circle.svg

<svg width="24" height="24" viewBox="0 0 24 24" fill="none" xmlns="http://www.w3.org/2000/svg">
<path d="M22.2812 12C22.2812 6.49 17.7913 2 12.2812 2C6.77125 2 2.28125 6.49 2.28125 12C2.28125 14.9 3.53125 17.51 5.51125 19.34C5.51125 19.35 5.51125 19.35 5.50125 19.36C5.60125 19.46 5.72125 19.54 5.82125 19.63C5.88125 19.68 5.93125 19.73 5.99125 19.77C6.17125 19.92 6.37125 20.06 6.56125 20.2C6.63125 20.25 6.69125 20.29 6.76125 20.34C6.95125 20.47 7.15125 20.59 7.36125 20.7C7.43125 20.74 7.51125 20.79 7.58125 20.83C7.78125 20.94 7.99125 21.04 8.21125 21.13C8.29125 21.17 8.37125 21.21 8.45125 21.24C8.67125 21.33 8.89125 21.41 9.11125 21.48C9.19125 21.51 9.27125 21.54 9.35125 21.56C9.59125 21.63 9.83125 21.69 10.0712 21.75C10.1413 21.77 10.2113 21.79 10.2913 21.8C10.5712 21.86 10.8512 21.9 11.1412 21.93C11.1812 21.93 11.2212 21.94 11.2612 21.95C11.6012 21.98 11.9412 22 12.2812 22C12.6213 22 12.9613 21.98 13.2913 21.95C13.3313 21.95 13.3713 21.94 13.4113 21.93C13.7013 21.9 13.9812 21.86 14.2612 21.8C14.3312 21.79 14.4012 21.76 14.4812 21.75C14.7212 21.69 14.9713 21.64 15.2013 21.56C15.2812 21.53 15.3612 21.5 15.4412 21.48C15.6613 21.4 15.8912 21.33 16.1012 21.24C16.1812 21.21 16.2612 21.17 16.3412 21.13C16.5512 21.04 16.7613 20.94 16.9713 20.83C17.0513 20.79 17.1213 20.74 17.1912 20.7C17.3912 20.58 17.5913 20.47 17.7913 20.34C17.8612 20.3 17.9212 20.25 17.9912 20.2C18.1912 20.06 18.3813 19.92 18.5613 19.77C18.6213 19.72 18.6713 19.67 18.7313 19.63C18.8413 19.54 18.9513 19.45 19.0513 19.36C19.0513 19.35 19.0513 19.35 19.0413 19.34C21.0312 17.51 22.2812 14.9 22.2812 12ZM17.2213 16.97C14.5113 15.15 10.0712 15.15 7.34125 16.97C6.90125 17.26 6.54125 17.6 6.24125 17.97C4.72125 16.43 3.78125 14.32 3.78125 12C3.78125 7.31 7.59125 3.5 12.2812 3.5C16.9713 3.5 20.7812 7.31 20.7812 12C20.7812 14.32 19.8413 16.43 18.3213 17.97C18.0313 17.6 17.6613 17.26 17.2213 16.97Z" fill="currentColor"/>
<path d="M12.2812 6.93018C10.2113 6.93018 8.53125 8.61018 8.53125 10.6802C8.53125 12.7102 10.1212 14.3602 12.2312 14.4202C12.2612 14.4202 12.3012 14.4202 12.3212 14.4202C12.3412 14.4202 12.3712 14.4202 12.3912 14.4202C12.4012 14.4202 12.4113 14.4202 12.4113 14.4202C14.4313 14.3502 16.0212 12.7102 16.0312 10.6802C16.0312 8.61018 14.3512 6.93018 12.2812 6.93018Z" fill="currentColor"/>
</svg>

<svg xmlns="http://www.w3.org/2000/svg" width="24" height="24" viewBox="0 0 24 24" fill="none"><path fill="currentColor" d="M22.281 12c0-5.51-4.49-10-10-10s-10 4.49-10 10c0 2.9 1.25 5.51 3.23 7.34 0 .01 0 .01-.01.02.1.1.22.18.32.27.06.05.11.1.17.14.18.15.38.29.57.43l.2.14c.19.13.39.25.6.36.07.04.15.09.22.13.2.11.41.21.63.3.08.04.16.08.24.11.22.09.44.17.66.24.08.03.16.06.24.08.24.07.48.13.72.19.07.02.14.04.22.05.28.06.56.1.85.13.04 0 .08.01.12.02.34.03.68.05 1.02.05.34 0 .68-.02 1.01-.05.04 0 .08-.01.12-.02.29-.03.57-.07.85-.13.07-.01.14-.04.22-.05.24-.06.49-.11.72-.19.08-.03.16-.06.24-.08.22-.08.45-.15.66-.24.08-.03.16-.07.24-.11.21-.09.42-.19.63-.3.08-.04.15-.09.22-.13.2-.12.4-.23.6-.36.07-.04.13-.09.2-.14.2-.14.39-.28.57-.43.06-.05.11-.1.17-.14.11-.09.22-.18.32-.27 0-.01 0-.01-.01-.02 1.99-1.83 3.24-4.44 3.24-7.34Zm-5.06 4.97c-2.71-1.82-7.15-1.82-9.88 0-.44.29-.8.63-1.1 1A8.48 8.48 0 0 1 3.781 12c0-4.69 3.81-8.5 8.5-8.5 4.69 0 8.5 3.81 8.5 8.5 0 2.32-.94 4.43-2.46 5.97-.29-.37-.66-.71-1.1-1Z"/><path fill="currentColor" d="M12.281 6.93c-2.07 0-3.75 1.68-3.75 3.75 0 2.03 1.59 3.68 3.7 3.74h.18a3.743 3.743 0 0 0 3.62-3.74c0-2.07-1.68-3.75-3.75-3.75Z"/></svg>
